priv/static/svgs/icons_new/sport-indy-racing.svg

<svg width="32" height="32" viewBox="0 0 32 32" fill="none" xmlns="http://www.w3.org/2000/svg">
<path d="M9.46138 9.45546C11.2837 7.74577 13.6836 6.5003 16.8108 6.5003C16.8108 6.5003 28 6.29649 28 16.5471C28 16.5471 27.8463 22.2725 24.5128 25.0389C24.5128 25.0389 23.9915 25.4994 22.5854 25.4994H7.0878C7.0878 25.4994 6.3866 25.5371 5.60666 25.0276C5.60666 25.0276 3.7693 24.118 4.02428 20.6873M4.17815 21.4914C4.17815 21.4914 5.88802 21.5593 9.24402 21.1932M4.67671 23.4311C4.67671 23.4311 6.38658 23.4991 9.74258 23.133M4.32426 18.8721C4.60548 17.7323 5.65166 14.0298 8.07398 10.9728L8.34021 11.0898C8.34021 11.0898 11.1525 12.4485 15.4347 11.6483C15.4347 11.6483 18.5544 10.5161 19.3494 13.1014C19.3494 13.1014 20.3281 15.8075 17.0883 17.0416C17.0883 17.0416 11.6475 19.0721 4.48924 18.8758H4.32426V18.8721Z" stroke="black" stroke-miterlimit="10" stroke-linecap="round"/>
</svg>

<svg width="32" height="32" viewBox="0 0 32 32" fill="none" xmlns="http://www.w3.org/2000/svg">
  <symbol id="item" viewBox="0 0 32 32" stroke-width="1" fill="none">
    <path d="M9.461 9.455c1.823-1.71 4.223-2.955 7.35-2.955C16.81 6.5 28 6.296 28 16.547c0 0-.154 5.726-3.487 8.492 0 0-.522.46-1.928.46H7.088s-.701.038-1.481-.471c0 0-1.838-.91-1.583-4.34m.154.803s1.71.068 5.066-.298m-4.567 2.238s1.71.068 5.066-.298m-5.419-4.26c.281-1.14 1.328-4.843 3.75-7.9l.266.117s2.813 1.358 7.095.558c0 0 3.12-1.132 3.914 1.453 0 0 .98 2.706-2.26 3.94 0 0-5.441 2.031-12.6 1.835h-.165v-.004Z" stroke="currentColor" stroke-miterlimit="10" stroke-linecap="round"/>
  </symbol>
</svg>
